X: 62
T: John Stephen of Chance Inn
T: Strathspey, F
L: 1/16
M: 2/2
K: F
F3G1 F3G1 A3B1 c1A3| f3d1 c3B1 A3B1 c1A3| d3c1 B3d1 c3A1 F3A1| G4g3f1 (3e2d2c2 (3B2A2G2| 
F3G1 F3G1 A3B1 c1A3| f3d1 c3B1 A3B1 c1A3| d3c1 B3d1 c3A1 F1f3| (3e2d2c2 (3B2A2G2 A1F3F4|| 
a3g1 f3a1 g3e1 c3e1| f3e1 d1f3 e3c1A4| d3c1 B3d1 c3A1 F3A1| G4g3f1 (3e2d2c2 (3B3A3G2| 
a3g1 f3a1 g3e1 c3e1| f3e1 d3f1 e1a3A4| d3c1 B3d1 c3A1 F3f1| (3e2d2c2 (3B3A3G2 A1F3F4|| 
D: Carl MacKenzie, Highland Fiddle and Dance
